32x32/apps/livepatch.svg

<svg height="32" width="32" xmlns="http://www.w3.org/2000/svg"><circle cx="16" cy="17" opacity=".2" r="14"/><circle cx="16" cy="16" fill="#ac2175" r="14"/><path d="m4 19h3.234a8.998 8.998 0 0 0 8.766 7 9 9 0 0 0 9-9 9.001 9.001 0 0 0 -8-8.933s-1-.067-1 .933 1 1.081 1 1.081a7 7 0 0 1 6 6.919 7 7 0 0 1 -7 7 7 7 0 0 1 -6.701-5h2.701l-4-4z" opacity=".2"/><g fill="#f4f4f7"><path d="m4 18h3.234a8.998 8.998 0 0 0 8.766 7 9 9 0 0 0 9-9 9.001 9.001 0 0 0 -8-8.933s-1-.067-1 .933 1 1.08 1 1.08a7.001 7.001 0 0 1 6 6.92 7 7 0 0 1 -7 7 7 7 0 0 1 -6.701-5h2.701l-4-4z"/><path d="m16 2a14 14 0 0 0 -14 14 14 14 0 0 0 .022.586 14 14 0 0 1 13.978-13.586 14 14 0 0 1 13.979 13.414 14 14 0 0 0 .021-.414 14 14 0 0 0 -14-14z" opacity=".2"/></g></svg>

<svg height="32" width="32" xmlns="http://www.w3.org/2000/svg">
    <circle cx="16" cy="17" opacity=".2" r="14"/>
    <circle cx="16" cy="16" fill="#ac2175" r="14"/>
    <path d="M4 19h3.234A8.998 8.998 0 0 0 16 26a9 9 0 0 0 9-9 9.001 9.001 0 0 0-8-8.933S16 8 16 9s1 1.081 1 1.081A7 7 0 0 1 23 17a7 7 0 0 1-7 7 7 7 0 0 1-6.701-5H12l-4-4z" opacity=".2"/>
    <g fill="#f4f4f7">
        <path d="M4 18h3.234A8.998 8.998 0 0 0 16 25a9 9 0 0 0 9-9 9.001 9.001 0 0 0-8-8.933S16 7 16 8s1 1.08 1 1.08A7.001 7.001 0 0 1 23 16a7 7 0 0 1-7 7 7 7 0 0 1-6.701-5H12l-4-4z"/>
        <path d="M16 2A14 14 0 0 0 2 16a14 14 0 0 0 .022.586A14 14 0 0 1 16 3a14 14 0 0 1 13.979 13.414A14 14 0 0 0 30 16 14 14 0 0 0 16 2z" opacity=".2"/>
    </g>
</svg>
